web/ui/src/components/theme/workflow/svgs/cache.svg

<svg fill="none" height="16" viewBox="0 0 16 16" width="16" xmlns="http://www.w3.org/2000/svg"><g fill="#6b7b8d"><path d="m.733398 9.66665c0-.33137.268632-.6.600002-.6h13.3333c.3314 0 .6.26863.6.6v4.33335c0 .3314-.2686.6-.6.6h-13.3333c-.33137 0-.600002-.2686-.600002-.6zm1.200002.60005v3.1333h12.1333v-3.1333z"/><path d="m11.8333 12.6667c.4603 0 .8334-.3731.8334-.8334 0-.4602-.3731-.8333-.8334-.8333-.4602 0-.8333.3731-.8333.8333 0 .4603.3731.8334.8333.8334z"/><path d="m2.42555 1.54314c.05832-.27781.30334-.47673.5872-.47673h9.99405c.2844 0 .5297.19965.5875.47811l1.6598 8.00026-1.175.24378-1.5606-7.52215h-9.01863l-1.57937 7.52353-1.174406-.24654z"/><path d="m2.7334 11.8334c0-.3314.26863-.6.6-.6h5.66667c.33137 0 .6.2686.6.6s-.26863.6-.6.6h-5.66667c-.33137 0-.6-.2686-.6-.6z"/></g></svg>

<svg width="16" height="16" viewBox="0 0 16 16" fill="none" xmlns="http://www.w3.org/2000/svg">
<path d="M0.733398 9.66665C0.733398 9.33528 1.00203 9.06665 1.3334 9.06665H14.6667C14.9981 9.06665 15.2667 9.33528 15.2667 9.66665V14C15.2667 14.3314 14.9981 14.6 14.6667 14.6H1.3334C1.00203 14.6 0.733398 14.3314 0.733398 14V9.66665ZM1.9334 10.2667V13.4H14.0667V10.2667H1.9334Z" fill="#6B7B8D"/>
<path d="M11.8333 12.6667C12.2936 12.6667 12.6667 12.2936 12.6667 11.8333C12.6667 11.3731 12.2936 11 11.8333 11C11.3731 11 11 11.3731 11 11.8333C11 12.2936 11.3731 12.6667 11.8333 12.6667Z" fill="#6B7B8D"/>
<path d="M2.42555 1.54314C2.48387 1.26533 2.72889 1.06641 3.01275 1.06641H13.0068C13.2912 1.06641 13.5365 1.26606 13.5943 1.54452L15.2541 9.54478L14.0791 9.78856L12.5185 2.26641H3.49987L1.9205 9.78994L0.746094 9.5434L2.42555 1.54314Z" fill="#6B7B8D"/>
<path d="M2.7334 11.8334C2.7334 11.502 3.00203 11.2334 3.3334 11.2334H9.00007C9.33144 11.2334 9.60007 11.502 9.60007 11.8334C9.60007 12.1648 9.33144 12.4334 9.00007 12.4334H3.3334C3.00203 12.4334 2.7334 12.1648 2.7334 11.8334Z" fill="#6B7B8D"/>
</svg>
